!!!!SEGMENT: artfugue-007.krn
!!!COM: Bach, Johann Sebastian
!!!CDT: 1685/03/31-1750/07/28
!!!OPR@@DE: Die Kunst der Fuge
!!!OPR@EN: The Art of the Fugue
!!!OTL: Contrapunctus 7, a 4. per Augment et Diminut
!!!SCA: BWV 1080
!!!voices: 4
!!!AGN: Stretto fugue
**kern	**kern	**kern	**kern
*part2	*part2	*part1	*part1
*staff4	*staff3	*staff2	*staff1
*I"	*I"	*I"	*I"
*clefF4	*clefC4	*clefC3	*clefC1
*mclefF4	*mclefGv2	*mclefG2	*mclefG2
*k[b-]	*k[b-]	*k[b-]	*k[b-]
*d:	*d:	*d:	*d:
*M4/4	*M4/4	*M4/4	*M4/4
*met(c)	*met(c)	*met(c)	*met(c)
*mmet(c)	*mmet(c)	*mmet(c)	*mmet(c)
*MM92	*MM92	*MM92	*MM92
=1	=1	=1	=1
1r	4d	1r	1r
.	8.aL	.	.
.	16gJk	.	.
.	8.fL	.	.
.	16eJk	.	.
.	4d	.	.
=2	=2	=2	=2
1r	4c#X	1r	2aa
.	8.dL	.	.
.	16eJk	.	.
.	[4f	.	4.dd
.	16fLL]	.	.
.	16g	.	.
.	16f	.	8ee
.	16eJJ	.	.
=3	=3	=3	=3
1r	16dLL	4dd	4.ff
.	16c#XJ	.	.
.	[8dJ	.	.
.	16dLL]	8.aL	.
.	16d	.	.
.	16c	.	8gg
.	16BXJJ	16bXJk	.
.	16ALL<	8.ccL	2aa
.	16G#J	.	.
.	[8AXJ	.	.
.	.	16ddJk	.
.	16ALL]	4ee	.
.	16A	.	.
.	16B	.	.
.	16c#XJJ	.	.
=4	=4	=4	=4
1r	16dLL	4ff	2bb-
.	16cn	.	.
.	16B-X	.	.
.	16AJJ	.	.
.	16GLL	8.eeL	.
.	16F#XJ	.	.
.	[8GJ	.	.
.	.	16ddJk	.
.	16GLL>]	[4cc#X	4.aa
.	16B-	.	.
.	16A	.	.
.	16GJJ	.	.
.	8.FL	16cc#LL]	.
.	.	16a	.
.	.	16bX	8gg
.	16EJk	16cc#JJ	.
!!LO:LB:g=original
=5	=5	=5	=5
1D	[4D	16ddLL	[2ff
.	.	16b-X	.
.	.	16a	.
.	.	16gJJ	.
.	16DLL]	[4f	.
.	16A	.	.
.	16BX	.	.
.	16c#XJJ	.	.
.	[4d	16fLL]	8ffL]
.	.	16a	.
.	.	16bX	8ee
.	.	16cc#XJJ	.
.	16dLL]	[4dd	8ff
.	16A	.	.
.	16G	.	8ggJ
.	16FJJ	.	.
=6	=6	=6	=6
2.AA	4E	16ddLL]	[4aa
.	.	16dd	.
.	.	16ccn	.
.	.	16bXJJ	.
.	8.AL	[4cc	16aaLL]
.	.	.	16gg
.	.	.	16ff
.	16GJk	.	16eeJJ
.	8.FL	16ccLL]	[4dd
.	.	16cc	.
.	.	16b	.
.	16EJk	16aJJ	.
4BBX	4D	4g#	16ddLL]
.	.	.	16dd
.	.	.	16ee
.	.	.	16ffJJ
=7	=7	=7	=7
2.C	16CLL	4a	16eeLL
.	16DJ	.	16dd
.	[8EJ	.	16cc
.	.	.	16bXJJ
.	16ELL]	8.eeL	8a
.	16E	.	.
.	16F#X	.	8r
.	16G#JJ	16ddJk	.
.	4AX/	8.ccL	16r
.	.	.	16eeLL
.	.	.	16aa
.	.	16bXJk	16ggJJ
4D	4r	4a	16ffLL
.	.	.	16ee
.	.	.	16dd
.	.	.	16ccJJ
=8	=8	=8	=8
1E	16r	4g#	4bX
.	16BXLL	.	.
.	16e	.	.
.	16dJJ	.	.
.	16cLL	8.aXL	4r
.	16B	.	.
.	16A	.	.
.	16G#JJ	16bXJk	.
.	8AX	[4cc	16r
.	.	.	16ddLL
.	8r	.	16ee
.	.	.	16ffJJ
.	4r	16ccLL]	[4gg
.	.	16dd	.
.	.	16cc	.
.	.	16b-JJ	.
!!LO:LB:g=original
=9	=9	=9	=9
1F	4A/	[4a	16ggLL]
.	.	.	16gg
.	.	.	16ff
.	.	.	16eeJJ
.	8.DL	16aLL]	[4ff
.	.	16a	.
.	.	16bX	.
.	16EJk	16cc#XJJ	.
.	8.FL	[4dd	16ffLL]
.	.	.	16gg
.	.	.	16ff
.	16GJk	.	16eeJJ
.	4A/	16ddLL]	[4dd
.	.	16cc	.
.	.	16b-	.
.	.	16aJJ	.
=10	=10	=10	=10
2.E	4B-	[4g	16ddLL]
.	.	.	16ff
.	.	.	16ee
.	.	.	16ddJJ
.	8.AL	16gLL]	[4cc#X
.	.	16e	.
.	.	16f	.
.	16GJk	16gJJ	.
.	[4F	[4a	16cc#LL]
.	.	.	16cc#
.	.	.	16dd
.	.	.	16eeJJ
4D	16FLL]	16aLL]	[4ff
.	16E	16g	.
.	16F	16a	.
.	16GJJ	16bXJJ	.
=11	=11	=11	=11
[1C	[4A	8ccL	16ffLL]
.	.	.	16ee
.	.	16ddL	16ff
.	.	16eeJJ	16ggJJ
.	16ALL]	[4ff	4aa
.	16G	.	.
.	16A	.	.
.	16BniJJ	.	.
.	8.cL	16ffLL]	[4gg
.	.	16ff	.
.	.	16ee-	.
.	16GJk	16ddJJ	.
.	8.cL	[4ee-	16ggLL]
.	.	.	16bb-
.	.	.	16aa
.	16B-iJk	.	16ggJJ
=12	=12	=12	=12
4C]	[4A/	16ee-LL]	[4ff#X
.	.	16dd	.
.	.	16cc	.
.	.	16b-JJ	.
4AA	16ALL]	[4cc	16ff#LL]
.	16D	.	16ff#
.	16E	.	16gg
.	16F#XJJ	.	16aaJJ
4BB-	[4G	16ccLL]	4dd
.	.	16cc	.
.	.	16b-	.
.	.	16aJJ	.
4C	16GLL]	8gL	4ee-
.	16F#X	.	.
.	16G	8ccJ	.
.	16AJJ	.	.
!!LO:MO:ori
*	*	*clefC3	*
!!LO:MO:end
!!LO:LB:g=original
=13	=13	=13	=13
2D	[4B-	16f#XLL	4dd
.	.	16d	.
.	.	16e	.
.	.	16f#JJ	.
.	16B-LL]	[4g	4r
.	16A	.	.
.	16B-	.	.
.	16cJJ	.	.
2r	[4d	16gLL]	4a
.	.	16g	.
.	.	16f#X	.
.	.	16eJJ	.
.	16dLL]	4f#	8.ddL
.	16c	.	.
.	16B-	.	.
.	16AJJ	.	16ccJk
=14	=14	=14	=14
16r	[4G	8.gL	8.b-L
16GGLL	.	.	.
16AA	.	.	.
16BB-JJ	.	16fnJk	16aJk
[4C	16GLL>]	4e-	4g
.	16G	.	.
.	16A	.	.
.	16B-JJ	.	.
16CLL]	4A/	2d	4f#X
16AA	.	.	.
16D	.	.	.
16CJJ	.	.	.
16BB-LL	4r	.	8.gL
16AA	.	.	.
16GG	.	.	.
16FF#XJJ	.	.	16aJk
=15	=15	=15	=15
16GGLL	1r	4.G	[4b-
16BB-	.	.	.
16C	.	.	.
16DJJ	.	.	.
[4E-	.	.	16b-LL]
.	.	.	16cc
.	.	8A	16b-
.	.	.	16aJJ
16E-LL]	.	8.B-L	[4g
16E-	.	.	.
16D	.	.	.
16CJJ	.	16cJk	.
8.BBntL	.	4d	16gLL]
.	.	.	16a-
.	.	.	16g
.	.	.	.
32AALL	.	.	16fJJ
32BBJJJ	.	.	.
=16	=16	=16	=16
[>4C	1r	2e-	16e-LL
.	.	.	16g
.	.	.	16a
.	.	.	16b-JJ
16CLL]	.	.	[4cc
16D	.	.	.
16E-	.	.	.
16FJJ	.	.	.
4G	.	4.d	16ccLL]
.	.	.	16cc
.	.	.	16b-
.	.	.	16aJJ
8.FL	.	.	16b-LL
.	.	.	16cc
.	.	8c	16dd
16E-XJk	.	.	16ee-JJ
!!LO:LB:g=original
=17	=17	=17	=17
[4D	4B-	[2B-	16ffLL
.	.	.	16ee-
.	.	.	16dd
.	.	.	16ccJJ
16DLL]	8.fL	.	[4b-
16E-	.	.	.
16D	.	.	.
16CJJ	16e-Jk	.	.
8BB-L	8.dL	8B-L]	16b-LL]
.	.	.	16a
8DJ	.	8A	16g
.	16cJk	.	16fJJ
4GG	4B-	8B-	16enLL
.	.	.	16g
.	.	8cJ	16f
.	.	.	16eJJ
=18	=18	=18	=18
16FFLL	4A	4d	4.f
16AA	.	.	.
16BB-	.	.	.
16CJJ	.	.	.
16DLL	8.B-L	4r	.
16C	.	.	.
16D	.	.	[8b-
16E-JJ	16cJk	.	.
[2F	[4d	4r	16b-LL]
.	.	.	16b-
.	.	.	16a
.	.	.	16gJJ
.	16dLL]	8r	8aL
.	16e-	.	.
.	16d	8a-	16bXL
.	16cJJ	.	16ccJJ
=19	=19	=19	=19
4F_	16BXLL	8g	16ddLL
.	16d	.	16bX
.	16e-	4r	16cc
.	16fJJ	.	16ddJJ
16FLL]	[4g	.	8gL
16E-	.	.	.
16D	.	[8cc	8ee-J
16CJJ	.	.	.
2G	8gL]	16ccLL]	4.dd
.	.	16cc	.
.	[8dJ	16b-	.
.	.	16aJJ	.
.	16dLL]	[4b-	.
.	16d	.	.
.	16c	.	8eeX
.	16B-JJ	.	.
=20	=20	=20	=20
4F	4c	16b-LL]	[2ff
.	.	16b-	.
.	.	16a	.
.	.	16gJJ	.
4r	8.fL	16aLL	.
.	.	16b-J	.
.	.	[8ccJ	.
.	16e-Jk	.	.
4F	8.dL	16ccLL]	8.ffL]
.	.	16b-J	.
.	.	[8aJ	.
.	16cJk	.	16ee-Jk
8.BB-L	4B-	16aLL]	[4dd
.	.	16dJ	.
.	.	[8gJ	.
16CJk	.	.	.
!!LO:LB:g=original
=21	=21	=21	=21
8.DL	4.A	8gL]	16ddLL]
.	.	.	16aJ
.	.	16fL	[8ddJ
16E-Jk	.	16gJJ	.
2F	.	[4a	16ddLL]
.	.	.	16cc
.	16B-LL	.	16dd
.	16cJJ	.	16ee-JJ
.	[4d	16aLL]	[4ff
.	.	16b-	.
.	.	16cc	.
.	.	16aJJ	.
[4G	16dLL]	[4b-	16ffLL]
.	16e-	.	16gg
.	16d	.	16ff
.	16cJJ	.	16ee-XJJ
=22	=22	=22	=22
8GL]	[4B-	16b-LL]	[4dd
.	.	16b-	.
16FL	.	16a	.
16E-JJ	.	16gJJ	.
[4D	16B-LL]	[2f	16ddLL]
.	16B-	.	16dd
.	16A	.	16cc
.	16GJJ	.	16b-JJ
16DLL]	8FL	.	16aLL
16C	.	.	16ee-J
16D	[>8B-J	.	8ddJ
16EXJJ	.	.	.
[4F	16B-LL]	16fLL]	[4cc
.	16B-	16g	.
.	16A	16f	.
.	16GJJ	16enJJ	.
=23	=23	=23	=23
4F]	16ALL	4f	16ccLL]
.	16G	.	16b-
.	16F	.	16a
.	16EJJ	.	16gJJ
16r	[4F	8.ccL	16aLL
16BB-LL	.	.	16gJ
16AA	.	.	8fJ
16GGJJ	.	16b-Jk	.
16FFLL	2F]	8.aL	[4cc
16AA	.	.	.
16BB-	.	.	.
16CJJ	.	16gJk	.
4D/	.	4f	16ccLL]
.	.	.	16bX
.	.	.	16cc
.	.	.	16ddJJ
=24	=24	=24	=24
16r	2.c	4e	4g
16CCLL	.	.	.
16C	.	.	.
16BB-JJ	.	.	.
16AALL	.	8.fL	4r
16GG	.	.	.
16FF	.	.	.
16EEJJ	.	16gJk	.
16FFLL	.	[4a	4cc
16C	.	.	.
16F	.	.	.
16EJJ	.	.	.
[4D/	4B-	16aLL]	8.fL
.	.	16b-	.
.	.	16a	.
.	.	16gJJ	16gJk
!!LO:LB:g=original
=25	=25	=25	=25
16DLL]	2.A	[4f	8.aL
16D	.	.	.
16C	.	.	.
16BB-JJ	.	.	16b-Jk
8.AAL	.	16fLL]	4cc
.	.	16g	.
.	.	16f	.
16AAJk	.	16e-JJ	.
8.BB-L	.	16dLL	4dd
.	.	16eXJ	.
.	.	[8fJ	.
16BBXJk	.	.	.
8.CL	4G	16fLL]	8.ccL
.	.	16fJ	.
.	.	[8eJ	.
16C#XJk	.	.	16b-Jk
=26	=26	=26	=26
8.DL	1F	16eLL]	[4a
.	.	16e	.
.	.	16d	.
16Ek	.	16c#XJJ	.
8.F	.	4d	16aLL]
.	.	.	16g
.	.	.	16a
16GJk	.	.	16b-JJ
8.AL	.	16cLL	[4cc
.	.	16e	.
.	.	16f	.
16B-k	.	16gJJ	.
8.c	.	4a	16ccLL]
.	.	.	16dd
.	.	.	16cc
16dJk	.	.	16bXJJ
=27	=27	=27	=27
8G	1E	8.gL	16ccLL
.	.	.	16dd
8r	.	.	16ee
.	.	16aJk	16ffJJ
4r	.	16b-LL	[4gg
.	.	16d	.
.	.	16c#X	.
.	.	16BXJJ	.
2r	.	4c#	16ggLL]
.	.	.	16ff
.	.	.	16ee
.	.	.	16ddJJ
.	.	16r	4cc#X
.	.	16b-XLL	.
.	.	16a	.
.	.	16gJJ	.
=28	=28	=28	=28
4D	2.F	16aLL	4dd
.	.	16g	.
.	.	16f	.
.	.	16eJJ	.
8.AL	.	8d	16r
.	.	.	16aLL
.	.	8r	16bX
16GJk	.	.	16cc#XJJ
8.FL	.	16r	16ddLL
.	.	16aLL	16eeJJ
.	.	16dd	4ff
16EJk	.	16ccJJ	.
4D	4G	16b-LL	.
.	.	16a	.
.	.	16b-	[8ee
.	.	16gJJ	.
!!LO:LB:g=original
=29	=29	=29	=29
4C#X	[1A	8e	16eeLL]
.	.	.	16ee
.	.	8r	16aa
.	.	.	16ggJJ
8.DL	.	4r	16ffLL
.	.	.	16ee
.	.	.	16dd
16EJk	.	.	16cc#XJJ
[4F	.	4d	16ddLL
.	.	.	16b-
.	.	.	16a
.	.	.	16gJJ
16FLL]	.	8.aL	16fLL
16G	.	.	16e
16F	.	.	16d
16EJJ	.	16gJk	16c#XJJ
=30	=30	=30	=30
4D	4A]	8.fL	16dLL
.	.	.	16aJ
.	.	.	[8ddJ
.	.	16eJk	.
8r	4B-	4d	16ddLL]
.	.	.	16ff
[8G	.	.	16ee
.	.	.	16ddJJ
8G]	4A	4c#X	16eeLL
.	.	.	8aa
4F	.	.	.
.	.	.	16aJJ
.	4G	8.dL	16b-LL
.	.	.	16dd
[8E	.	.	16gg
.	.	16eJk	16gJJ
=31	=31	=31	=31
8EL]	4F	[4f	16aLL
.	.	.	16cc
16DL	.	.	16ff
16CJJ	.	.	16eeJJ
8.BBXL	8r	16fLL]	8.ddL
.	.	16g	.
.	[8G	16f	.
16C#XJk	.	16eJJ	16eeJk
8DL	16GLL]	4d	8aL
.	16A	.	.
8BB-	16G	.	[8ddJ
.	16FJJ	.	.
8GG	8EL	4r	16ddLL]
.	.	.	16ee
8AAJ	[>8AJ	.	16dd
.	.	.	16ccJJ
=32	=32	=32	=32
8DL	16ALL]	1r	8ffL
.	16B-	.	.
8EJ	16A	.	[8b-XJ
.	16GJJ	.	.
[4F	16FLL	.	16b-LL]
.	16A	.	16cc
.	16d	.	16b-
.	16cJJ	.	16aJJ
16FLL]	8B-L	.	8gL
16A	.	.	.
16G	8BX	.	[8ggJ
16FJJ	.	.	.
8EL	8c	.	16ggLL]
.	.	.	16bb-
8AJ	8c#XJ	.	16aa
.	.	.	16ggJJ
!!LO:LB:g=original
=33	=33	=33	=33
8D	16dLL	1r	8ff#XL
.	16c	.	.
8r	16BX	.	[8ffJ
.	16AJJ	.	.
8G	8BL	.	16ffLL]
.	.	.	16aa
8r	[8B-J	.	16gg
.	.	.	16ffJJ
8C	16B-LL]	.	8eeL
.	16d	.	.
8r	16c	.	[8ee-J
.	16B-JJ	.	.
8F	8AL	.	16ee-LL]
.	.	.	16gg
8r	[8aJ	.	16ff
.	.	.	16ee-XJJ
=34	=34	=34	=34
8BB-L	16aLL]	1r	4dd
.	16a	.	.
[8B-J	16g	.	.
.	16fJJ	.	.
16B-LL]	8eL	.	8cc#XL
16A	.	.	.
16G	8e-J	.	[8ccJ
16F#XJJ	.	.	.
8GL	8dL	.	8ccL]
8A	8c#X	.	16b-L
.	.	.	16aJJ
8B-	8d	.	16gLL
.	.	.	16ff
8GJ	[8gJ	.	16ee
.	.	.	16ddJJ
=35	=35	=35	=35
[4A	16gLL]	1a	8.cc#XL
.	16f	.	.
.	16e	.	.
.	16dJJ	.	16ddk
16ALL]	8c#XL	.	8.ee
16B-	.	.	.
16A	8eJ	.	.
16GJJ	.	.	16cc#Jk
8.FL	8A	.	16ddLL
.	.	.	16ff
.	8r	.	16ee
16GJk	.	.	16ddJJ
8A	8r	.	16cc#LL
.	.	.	16ee
8r	8C#X	.	16a
.	.	.	16gJJ
=36	=36	=36	=36
16r	8D	2.d	16fLL
16BB-LL	.	.	16g
16AA	8r	.	16f
16GGJJ	.	.	16eJJ
16FFLL	4r	.	16dLL
16EE	.	.	16f
16DD	.	.	16b-
16CC#XJJ	.	.	16aJJ
4DD	2D	.	16gLL
.	.	.	16f
.	.	.	16e
.	.	.	16fJJ
16r	.	4e	16gLL
16GLL	.	.	16b-
16F	.	.	16dd
16EJJ	.	.	16cc#XJJ
!!LO:LB:g=original
=37	=37	=37	=37
16DLL	4.A	2.f	4dd
16C#X	.	.	.
16D	.	.	.
16EJJ	.	.	.
4F	.	.	16r
.	.	.	16ddLL
.	8G	.	16cc
.	.	.	16b-JJ
16r	4.F	.	4a
16FFLL	.	.	.
16GG	.	.	.
16AAJJ	.	.	.
8BB-L	.	4g	16r
.	.	.	16cc#XLL
8GGJ	8E	.	16dd
.	.	.	16eeJJ
=38	=38	=38	=38
16DLL	2D	1a	16ffLL
16DD	.	.	16gg
16D	.	.	16ff
16EJJ	.	.	16eeJJ
16FLL	.	.	4dd
16A	.	.	.
16G	.	.	.
16FJJ	.	.	.
16ELL	2C#X	.	4.aa
16D	.	.	.
16E	.	.	.
16FJJ	.	.	.
16ELL	.	.	.
16F	.	.	.
16D	.	.	8gg
16EJJ	.	.	.
=39	=39	=39	=39
16FLL	4.D	1b-	4.ff
16E	.	.	.
16F	.	.	.
16GJJ	.	.	.
16FLL	.	.	.
16E	.	.	.
16D	8E	.	8ee
16C#XJJ	.	.	.
16DLL	[2F	.	2dd
16C	.	.	.
16BB-	.	.	.
16AAJJ	.	.	.
16GGLL	.	.	.
16AA	.	.	.
16BB-	.	.	.
16GGJJ	.	.	.
=40	=40	=40	=40
16AALL	8FL]	2.a	2cc#X
16GG	.	.	.
16AA	8G	.	.
16BB-JJ	.	.	.
16AALL	8F	.	.
16A	.	.	.
16G	8EJ	.	.
16AJJ	.	.	.
16FLL	[2D	.	4dd
16A	.	.	.
16d	.	.	.
16cJJ	.	.	.
16B-LL	.	4g	4ee
16A	.	.	.
16G	.	.	.
16B-JJ	.	.	.
!!LO:LB:g=original
=41	=41	=41	=41
16ALL	4D]	[1f	[2ff
16G	.	.	.
16F	.	.	.
16EJJ	.	.	.
16DLL	8r	.	.
16C	.	.	.
16BB-	[8C#X	.	.
16AAJJ	.	.	.
4BB-	16C#LL]	.	8ffL]
.	16E	.	.
.	16D	.	8gg
.	16C#JJ	.	.
[4AA	16DLL	.	8ff
.	16E	.	.
.	16F	.	8eeJ
.	16GJJ	.	.
=42	=42	=42	=42
4AA]	16ALL	4f]	16ddLL
.	16G	.	16aJ
.	16F	.	[8ddJ
.	16GJJ	.	.
4r	4A/	4e	16ddLL]
.	.	.	16ee
.	.	.	16dd
.	.	.	16cc#XJ
2r	16r	4f	8ddJ
.	16e-LL	.	.
.	16d	.	8aa
.	16cJJ	.	.
.	16B-LL	4g	8.ddL
.	16AJ	.	.
.	8GJ	.	.
.	.	.	16eeJk
=43	=43	=43	=43
16r	4d	4a	8.ffL
16B-LL	.	.	.
16A	.	.	.
16GJJ	.	.	16ggJk
16FLL	8r	8.dL	4aa
16EJ	.	.	.
8DJ	[8d	.	.
.	.	16eJk	.
2r	16dLL]	8.fL	4bb-
.	16c#X	.	.
.	16d	.	.
.	16eJJ	16gJk	.
.	16fLL	4a	8.aaL
.	16g	.	.
.	16f	.	.
.	16eJJ	.	16ggJk
=44	=44	=44	=44
16r	4d	4b-	[4ff
16GLL	.	.	.
16A	.	.	.
16B-JJ	.	.	.
8cL	[4c	8.aL	16ffLL]
.	.	.	16ee
8CJ	.	.	16ff
.	.	16gJk	16ggJJ
8FL	2c_	[4f	16aaLL
.	.	.	16ff
8G	.	.	16ee
.	.	.	16ddJJ
8A	.	16fLL]	8cc
.	.	16e	.
8GJ	.	16f	8r
.	.	16gJJ	.
!!LO:LB:g=original
=45	=45	=45	=45
4F#X	16cLL]	4a	1r
.	16e-	.	.
.	16d	.	.
.	16cJJ	.	.
16r	8.B-L	8.ddL	.
16DLL	.	.	.
16E	.	.	.
16F#JJ	16AJk	16ccJk	.
16GLL	4G	8.b-L	.
16D	.	.	.
16G	.	.	.
16FJJ	.	16aJk	.
16E-LL	8r	4g	.
16D	.	.	.
16C	8e-X	.	.
16BB-JJ	.	.	.
=46	=46	=46	=46
16CLL>	8A	4f#X	1r
16E-	.	.	.
16D	8r	.	.
16CJJ	.	.	.
16BB-LL	4d	8.gL	.
16AA	.	.	.
16GG	.	.	.
16FF#XJJ	.	16aJk	.
16GGLL<	8.GL	[4b-	.
16DJ	.	.	.
[8GJ	.	.	.
.	16Ak	.	.
16GLL]	8.B-	16b-LL]	.
16F#X	.	16cc	.
16G	.	16b-	.
16AJJ	16cJk	16aJJ	.
=47	=47	=47	=47
16B-LL	4d	[4g	1r
16G	.	.	.
16A	.	.	.
16B-JJ	.	.	.
8cL	4e-	16gLL]	.
.	.	16f#X	.
8CJ	.	16g	.
.	.	16aJJ	.
4G	8.dL	16b-LL	.
.	.	16cc	.
.	.	16b-	.
.	16cJk	16aJJ	.
8r	[4B-	16gLL	.
.	.	16f	.
8GG	.	16e	.
.	.	16dJJ	.
=48	=48	=48	=48
8.CL	16B-LL]	[4e	1r
.	16G	.	.
.	16A	.	.
16BB-k	16B-JJ	.	.
8.AA	[4c	16eLL]	.
.	.	16e	.
.	.	16f	.
16GGJk	.	16gJ	.
4FF	16cLL]	8aJ	.
.	16c	.	.
.	16B-	4d	.
.	16AJJ	.	.
4EE	16GLL	.	.
.	16F	.	.
.	16E	16cLL	.
.	16DJJ	16B-JJ	.
!!LO:LB:g=original
=49	=49	=49	=49
8.FFL	4C	16ALL	1r
.	.	16c	.
.	.	16d	.
16GGJk	.	16eJJ	.
[4AA	4r	16fLL	.
.	.	16g	.
.	.	16a	.
.	.	16b-JJ	.
16AALL]	16r	8ccL	.
16BB-	16dLL	.	.
16AA	16c	[8e-J	.
16GGJJ	16B-JJ	.	.
16FFLL	[4A	16e-LL]	.
16E-	.	16g	.
16D	.	16f	.
16CJJ	.	16e-JJ	.
=50	=50	=50	=50
4BB-	16ALL]	4d	1dd
.	16D	.	.
.	16E	.	.
.	16F#XJJ	.	.
16r	8G	4r	.
16B-LL	.	.	.
16A	8r	.	.
16GJJ	.	.	.
8F#XL	4r	16r	.
.	.	16aLL	.
8DJ	.	16b-	.
.	.	16ccJJ	.
[4G	16r	16b-LL	.
.	16fnLL	16a	.
.	16e	16g	.
.	16dJJ	16fJ	.
=51	=51	=51	=51
16GLL]	[4c#X	8eJ	2.aa
16G	.	.	.
16F	.	8ee	.
16EJJ	.	.	.
8.FL	16c#LL]	8.aL	.
.	16AJ	.	.
.	8dJ	.	.
16DJk	.	16bXJk	.
4A	16eLL	8.cc#XL	.
.	16f	.	.
.	16e	.	.
.	16dJJ	16ddJk	.
16r	8c#X	4ee	4gg
16AALL	.	.	.
16BBX	8r	.	.
16C#XJJ	.	.	.
!!LO:LB:g=original
=52	=52	=52	=52
4D	16r	4ff	2.ff
.	16ALL	.	.
.	16BX	.	.
.	16c#XJJ	.	.
16r	8d	8.eeL	.
16ELL	.	.	.
16F	8r	.	.
16GJJ	.	16ddJk	.
2A	16r	[4cc#X	.
.	16BnLL	.	.
.	16c#X	.	.
.	16dJJ	.	.
.	16eLL	16cc#LL]	4ee
.	16f	16a	.
.	16g	16bX	.
.	16aJJ	16cc#JJ	.
=53	=53	=53	=53
16r	4f	4dd	1dd
16B-LL	.	.	.
16A	.	.	.
16GJJ	.	.	.
16FLL	4r	[4a	.
16E	.	.	.
16D	.	.	.
16FJJ	.	.	.
2BB-	16r	8aL]	.
.	16DLL	.	.
.	16E	16gL	.
.	16F#XJJ	16aJJ	.
.	16GLL>	8b-L	.
.	16A	.	.
.	16B-	[8gJ	.
.	16GJJ	.	.
=54	=54	=54	=54
4AA	8AL	16gLL]	1cc#X
.	.	16a	.
.	8EJ	16g	.
.	.	16fJJ	.
16r	4r	16eLL	.
16ALL	.	16d	.
16G	.	16e	.
16FJJ	.	16fJJ	.
16ELL	8B-L	8gL	.
16D	.	.	.
16E	8GJ	8b-J	.
16FJJ	.	.	.
16GLL	4r	4e	.
16B-	.	.	.
16A	.	.	.
16GJJ	.	.	.
!!LO:LB:g=original
=55	=55	=55	=55
16FLL	4A	8.aL	2.dd
16G	.	.	.
16F	.	.	.
16EJJ	.	16gJk	.
16DLL	8.dL	8.fL	.
16EJ	.	.	.
[8FJ	.	.	.
.	16cJk	16eJk	.
16FLL]	8.B-L	4d	.
16A	.	.	.
16G	.	.	.
16FJJ	16AJk	.	.
16ELL	4G	4c#X	4ee
16A	.	.	.
16G	.	.	.
16AJJ	.	.	.
=56	=56	=56	=56
*	*	*	*^
4D	[4F	8.dL	[1ff	16re
.	.	.	.	16ddLL
.	.	.	.	16cc
.	.	16eJJ	.	16b-JJ
4r	16FLL]	[4f	.	[4a
.	16F	.	.	.
.	16G	.	.	.
.	16AJJ	.	.	.
2r	[4B-	16fLL]	.	16aLL]
.	.	16g	.	16b-
.	.	16f	.	16a
.	.	16eJJ	.	16gJJ
.	16B-LL]	[4d	.	8fL
.	16c	.	.	.
.	16B-	.	.	16gL
.	16AJJ	.	.	16aJJ
=57	=57	=57	=57	=57
16r	8G	8d]	4ff]	8b-L
16ALL	.	.	.	.
16G	8r	4b-	.	8dd
16FJJ	.	.	.	.
16ELL	4r	.	4gg	8cc#X
16D	.	.	.	.
16C#X	.	16aLL	.	[8eeJ
16EJJ	.	16gJJ	.	.
[2AA	16r	8aL	4ff	8ee]
.	16BBXLL	.	.	.
.	16C#X	8f	.	4dd
.	16DJJ	.	.	.
.	16ELL	8g	4ee	.
.	16F	.	.	.
.	16G	8eJ	.	8cc#
.	16EJJ	.	.	.
!!LO:LB:g=original
=58	=58	=58	=58	=58
16AALL>]	8A	8f	[2dd	16ddLL
16G	.	.	.	16b-
16F	8r	8r	.	16a
16EJJ	.	.	.	16gJJ
16DLL	8r	8r	.	16fLK
16C	.	.	.	8a
16BB-	[8F	[8d	.	.
16DJJ	.	.	.	16a-Jk
4GG#	8F]	8d]	16ddLL]	8bX
.	.	.	16ee	.
.	8r	8r	16dd	8re
.	.	.	16cc#XJJ	.
4r	4r	4r	16ddLL	4re
.	.	.	16ee	.
.	.	.	16ff	.
.	.	.	16eeJJ	.
=59	=59	=59	=59	=59
4r	4r	4r	16ggLL	4re
.	.	.	16ff	.
.	.	.	16ee	.
.	.	.	16ddJJ	.
8r	8r	8r	16eeLL	8re
.	.	.	16cc#XJ	.
8BB-	16DLL	8F#	[8ddJ	[8f
.	16EJJ	.	.	.
2AA	4F	2AX	4dd]	16fLL]
.	.	.	.	16d
.	.	.	.	16e
.	.	.	.	16fJJ
.	4E	.	4cc#X	16gLL
.	.	.	.	16a
.	.	.	.	16b-
.	.	.	.	16gJJ
=60	=60	=60	=60	=60
[1D	4D	[4B-	4.dd	16f#XLL
.	.	.	.	16a
.	.	.	.	16g
.	.	.	.	16f#JJ
.	8r	16B-LL]	.	[4g
.	.	16c	.	.
.	8d	16B-	8dd	.
.	.	16AJJ	.	.
.	8eL	16GLL	8cc#XL	8gL]
.	.	16F#X	.	.
.	8g	16E	[8ccJ	8b-J
.	.	16GJJ	.	.
.	8d	4F#	16ccLL]	4a
.	.	.	16ee-	.
.	8AJ	.	16dd	.
.	.	.	16ccJJ	.
=61	=61	=61	=61	=61
2D]	4B-	2G	16b-LL	4e
.	.	.	16a	.
.	.	.	16g	.
.	.	.	[16b-JJ	.
.	4E	.	16b-LL]	4c#X
.	.	.	16b-	.
.	.	.	16a	.
.	.	.	16gJJ	.
2DD;	2D;	2A;	2f#X;	2d;y
*	*	*	*v	*v
==	==	==	==
*-	*-	*-	*-
!!!RDF**kern: > = above
!!!RDF**kern: < = below
!!!RDF**kern: i = editorial accidental
!!!system-decoration: [(s1,s2,s3,s4)]
!!!URL-pdf: https://vmirror.imslp.org/files/imglnks/usimg/8/88/IMSLP504269-PMLP05843-BGA-25.1.pdf#page=27 @{SMS1}, page 27
!!!URL-pdf: https://s9.imslp.org/files/imglnks/usimg/1/1d/IMSLP469177-PMLP5843-Bach,_J.S._-_The_Art_of_the_Fugue.pdf#page=33 @{SMS2}, page 33
!!!URL-youtube: https://www.youtube.com/watch?v=OMtjlaDEMdI&t=1406s Netherlands Bach Society/Malinowski
!!!URL-youtube: https://www.youtube.com/watch?v=N6sUlZa-IrU&t=1406s Netherlands Bach Society
!!!SMS: @{SMS1}
!!!SMS1: Bach-Gesellschaft Ausgabe, Band 25.1 Leipzig: Breitkopf und Härtel, 1878. Plate B.W. XXV (1).
!!!SMS2: Bach-Gesellschaft Ausgabe, Band 47 Leipzig: Breitkopf und Härtel, 1926. Plate B.W. XLVII.
!!!PED: Wilhelm Rust
!!!PED-ODT: 1822-1892
!!!ONB: Die Kunst der Fuge nach dem Berliner Autograph in Anordnung und Lesarten
!!!ENC: Craig Stuart Sapp
!!!END: 2024/03/22
!!!EED: Craig Stuart Sapp
!!!EEV: 2024/03/28
!!!title: @{OPR} (@{SCA}), @{OTL}
!!!filter-keyboard: autostem -r | satb2gs | shed -e s/clefC./clefG2/I
!!!filter-modern: modori -m | autostem -r
